X: 3149
Q: "Strathspey."
M: C
L: 1/16
K: Am
[|\
vA4 A3uB c3de3^f | g3ed3c (BG3) G4 |\
a3ba3g (ag)(ab) a2(ba) | d3g B2gd BG3 G2e2 |\
a3ba3g (ag)(ab) a2(ba) |
g3e gedc BA3 A2e2 |\
a3ba3g (ag)(ab) a2(ba) | d3g B2gd BG3 G3B |\


